X:1
T: Sir James Baird's Favourite
C:
R:Strathspey
Q: 128
K:A
M:4/4
L:1/16
|:cB|AE3 E3C E4 E2cB|AF3 F3E F4 F3A|E3F AA3 B3c e3f|ec3 B3A F4 F2cB|
AE3 EFAC E4 E2cB|AF3 FAFE F4 F3A|E3F AA3 B3c e3f|fedc dcBA F4 F2cd|
e3f e3c e4 e3a|f3g fgag f4 f3a|ec3 B3A A3B c3B|AF3 F3E E4 E2cd|
e3f fedc e4 e2ag|fefg fgag f4 f2ag|fedc dcBA A3B c3A|Bcdf ecBA F4 F2:|
